src/assets/curso/temas/tema_5/img_13.svg

<svg height="49.226" viewBox="0 0 49.226 49.226" width="49.226" xmlns="http://www.w3.org/2000/svg"><g transform="translate(-303.526 -3276.302)"><g fill="#73964a" stroke="#ffce79" stroke-linejoin="round" stroke-width="3"><circle cx="328.139" cy="3300.915" r="21.613" stroke="none"/><circle cx="328.139" cy="3300.915" fill="none" r="23.113"/></g><path d="m8.385 14.184h1.45v2.048h-1.45v2.768h-2.54v-2.769h-5.245l-.114-1.6 5.332-8.431h2.567zm-5.37 0h2.83v-4.518l-.167.29z" fill="#fff" transform="translate(322.196 3289.915)"/></g></svg>

<svg xmlns="http://www.w3.org/2000/svg" width="49.226" height="49.226" viewBox="0 0 49.226 49.226">
  <g id="Grupo_1127834" data-name="Grupo 1127834" transform="translate(-4058.336 8339.311)">
    <g id="Grupo_1127403" data-name="Grupo 1127403" transform="translate(3754.81 -11615.613)">
      <g id="Grupo_1106486" data-name="Grupo 1106486" transform="translate(306.526 3279.302)">
        <g id="Elipse_157" data-name="Elipse 157" transform="translate(0 0)" fill="#73964a" stroke="#ffce79" stroke-linejoin="round" stroke-width="3">
          <circle cx="21.613" cy="21.613" r="21.613" stroke="none"/>
          <circle cx="21.613" cy="21.613" r="23.113" fill="none"/>
        </g>
      </g>
      <path id="Trazado_919702" data-name="Trazado 919702" d="M8.385,14.184h1.45v2.048H8.385V19H5.845V16.231H.6l-.114-1.6L5.818,6.2H8.385Zm-5.37,0h2.83V9.666l-.167.29Z" transform="translate(322.196 3289.915)" fill="#fff"/>
    </g>
  </g>
</svg>
